X: 10715
T: Doyle's
R: polka
M: 2/4
K: Dmajor
|:FA D>E|FA BA|FA DE|FE E2|
FA D>E|FA BA|FA Bc|ed d2:|
|:DF/A/ BA|dc/d/ BA|FA DE|FE EF/E/|
DF/A/ BA|dA c/B/A|FA Bc|ed d2:|

